packages/core/src/svgs/tokens/mono/GSWAP.svg

<svg width="24" height="24" viewBox="0 0 24 24" fill="none" xmlns="http://www.w3.org/2000/svg">
<path d="M18.5624 6.375L19.1875 3.875H8.24997C7.41873 3.875 5.62498 4.375 5.12498 6.375L4.49998 10.75H6.68748L7.31247 7.62499C7.31247 7.20625 7.62498 6.375 8.87497 6.375H18.5624ZM18.5624 6.375L18.2499 8.87498H9.18742L8.87497 10.75H22L18.5624 6.375ZM5.43748 17.625L4.81249 20.125H15.7499C16.5811 20.125 18.3749 19.6249 18.8749 17.625L19.5 13.25H17.3125L16.6875 16.3749C16.6875 16.7937 16.3749 17.625 15.125 17.625H5.43748ZM5.43748 17.625L5.74997 15.125H14.8125L15.125 13.25H2L5.43748 17.625Z" fill="white"/>
</svg>

<svg xmlns="http://www.w3.org/2000/svg" width="24" height="24" fill="none" viewBox="0 0 24 24">
    <path fill="#fff" d="m18.562 6.375.625-2.5H8.25c-.831 0-2.625.5-3.125 2.5L4.5 10.75h2.187l.625-3.125c0-.419.313-1.25 1.563-1.25zm0 0-.312 2.5H9.187l-.312 1.875H22zM5.437 17.625l-.625 2.5H15.75c.831 0 2.625-.5 3.125-2.5l.625-4.375h-2.187l-.625 3.125c0 .419-.313 1.25-1.563 1.25zm0 0 .313-2.5h9.063l.312-1.875H2z"/>
</svg>
